art/dp/systems_sel_1920/mame-advmame.svg

<svg enable-background="new 0 0 685 182" height="468" viewBox="0 0 1920 468" width="1920" xmlns="http://www.w3.org/2000/svg"><g fill="#fff" stroke-width="5.82334" transform="scale(.5 .49968417)"><g><path d="m2851.4816 441.61325c-25.1394-.099-45.1018-21.24356-45.1367-46.10341v-342.604765c.1805-24.59198 19.1763-49.5682994 45.1367-49.9875801v5.8233434 5.8233437c-8.7816-.01165-17.1031 4.571324-23.3749 11.89709-6.2542 7.290826-10.1442 17.167217-10.1209 26.443803v342.604765c.035 18.56482 15.2047 34.40431 33.49 34.44507h444.0241v-107.73767h-355.2239v-201.8662h355.2239v-105.786858h-444.0241v-5.8233437-5.8233434h455.6708v129.0802251h-355.224v178.57865h355.224v131.0427z"/><path d="m1476.6892 936.59161v-309.62717h-49.5042v309.62717h-146.6143l3.9482-388.70817h-.012c.1805-24.5978 19.1821-49.57412 45.1425-49.9934h492.5559v438.68993h-148.5065v-309.60388h-47.5534v309.61552zm208.6737-321.26221-.012 309.6097h125.2081v-415.39073h-480.9034c-8.7874-.0233-17.1031 4.5655-23.3749 11.89709-6.26 7.285-10.15 17.16139-10.1093 26.43798h-5.8233l5.8117.0641-3.8201 376.9916h123.2044v-309.60974h72.7918v309.6097h126.1686v-309.6097z"/><path d="m2623.8821 936.59161v-309.62717h-49.4926v309.62717h-146.6143l3.9424-388.77223c.2096-24.56868 19.1995-49.51006 45.1309-49.92934h492.5616v438.68993h-148.4952v-309.60388h-47.5593v309.61552zm208.6737-321.26221v309.6097h125.2077v-415.39073h-480.915c-8.7758-.0233-17.0974 4.5655-23.3749 11.89709-6.2485 7.285-10.1385 17.16139-10.1094 26.43798h-5.8233l5.8233.0641-3.8201 376.9916h123.1987v-309.60974h72.7918l-.012 309.6097h126.1802v-309.6097z"/><path d="m4.350038 159.18109v-156.2635951h152.379422v150.4402551 5.82334zm146.556082-5.82334v-5.82335zm-134.909396-5.82335h129.091876v-132.976042h-129.091876z"/><path d="m2077.4603 159.18109v-156.2635951h152.3794v150.4402551 5.82334zm146.5561-5.82334v-5.82335zm-134.9036-5.82335h129.0802v-132.976042h-129.0802z"/><path d="m1856.1732 654.16528v-156.26942h152.3795v150.44608 5.82334zm146.5678-5.82334v-5.83499zm-134.9269-5.83499h129.1035v-132.95858h-129.1035z"/><path d="m228.37406 441.6016 95.32813-124.23521h67.90018v-147.37717l-216.5352 271.61238h-162.954616v-5.81752l4.548032 3.62794-4.548032-3.62794v5.81752h-12.11255392l350.95543992-438.6899284h192.05386v438.6899284zm-58.92641-11.64086 233.80141-293.24611v192.3101l-73.81088-.0175-77.43882 100.94183h279.36326v-415.390702h-174.81677l-332.320741 415.402382z"/><path d="m2083.1089 936.58579 95.334-124.23521h67.8827v-147.37135l-216.5294 271.60656h-162.9429v-5.82334l4.548 3.63376-4.548-3.63376v5.82334h-12.1184l350.9438-438.68993h192.0597v438.68993zm-58.9206-11.64086 233.7956-293.24028v192.30426l-73.805-.0116-77.4505 100.93019h279.3633v-415.38495h-174.811l-332.3207 415.40238z"/><path d="m2060.0893 441.6016-216.5411-271.60074v147.36553h67.9002l95.3281 124.23521h-314.6352v-438.6899284h192.0539l343.3851 429.2269984-4.5481 3.64541v-5.82334 5.82334l4.5481-3.64541 7.582 9.46293zm5.6078-11.64086h145.2226l-332.3208-415.402382h-174.8167v415.390732h279.3632l-77.433-100.92436h-73.8109v-192.32174z"/><path d="m577.95519 444.51327v-126.15691l349.39478-.0116v-181.49619h-199.93285v152.37943h-149.46193v-289.22800014h450.81991v5.81752004l.058-5.81752004c27.9113.58815768 47.7572 26.93296314 47.9727 52.90507514v342.616405c-.035 26.40304-21.197 48.88697-48.0368 48.99179zm11.64668-11.64669h439.16163c20.0265-.0233 36.4192-17.20215 36.4075-37.3451v-342.593112c.035-20.370055-16.7188-41.316621-36.4424-41.281681h-439.12673v265.934623h126.16856v-152.37943h223.22622v204.78952h-349.39478z"/><path d="m1115.6361 441.61325v-432.8724117-5.8233434h146.5678v268.1591451l221.4442-268.1591451h173.8443l-341.9817 438.6957551zm11.6467-11.65834h182.5385l323.8129-415.390728h-144.4946l-238.5941 288.919358v-288.919358h-123.2569zm-5.8175-415.390728v-5.8233437z"/></g><path d="m1500.9493 441.61325v-158.21442h152.3794v152.37943 5.83499zm146.5561-5.83499v-5.82335zm-134.9094-5.82335h129.086v-134.90357h-129.086z"/><path d="m2610.4651 441.61325-196.2176-238.0641v238.0641h-140.7327v-5.83499h5.8233-5.8233v5.83499h-5.8234v-438.6957551h170.6531l178.7476 217.6299851v-217.6299851h149.4677v438.6957551zm-331.127-11.65834 123.2627-.0175v-258.84758l213.3615 258.84761h138.9392v-415.373258h-126.1628v238.529968l-195.8914-238.529968h-153.5092z"/><path d="m3341.1316 441.61325v-432.8724117-5.8233434h498.8684v130.0527251h-351.3514v21.3542h351.3514v129.08606h-350.3789v32.02256h350.3789v126.18021zm11.6467-11.67581h475.5692v-102.85771h-350.3673v-55.32759h350.3673v-105.78103h-351.3398v-44.64757h351.3398v-106.759358h-475.5692zm-5.8233-415.373258v-5.8233437z"/><path d="m3003.3661 936.59161v-432.86658-5.83499h498.88v130.0702l-351.3456-.0117v21.3542h351.3456v129.08605l-350.3848-.0175v32.04004h350.3848v126.1802zm11.6467-11.65251h475.5808v-102.88101h-350.3731v-55.31593h350.3731v-105.79268h-351.3398v-44.64758h351.3339v-106.75353h-475.5808zm-5.8234-415.39073v-5.82334z"/><path d="m360.86328 25.48828c-105.1499 131.42802-210.2986 262.86344-315.447264 394.29492h119.140624c82.95896-104.05484 165.91656-208.11076 248.875-312.16601v231.58398c-26.32747 0-52.65495 0-78.98242 0-20.60478 26.86171-41.21127 53.7221-61.81836 80.58203h248.56055c0-131.68099 0-263.36198 0-395.04297-53.24219 0-106.48438 0-159.72657 0-.20052.24935-.40104.4987-.60156.74805z"/><path d="m1027.4863 21.81641c-142.56768.003-285.13539.005-427.7031.008v245.58008h105.81055c0-50.79102 0-101.58203 0-152.37305h243.58008v225.13672c-116.46485.004-232.92969.008-349.39453.0117v82.51562c143.455-.01 286.91063-.0161 430.3652-.0586 10.2741-.54129 19.6325-7.90287 23.0645-17.52431 1.7886-4.67239 1.9725-9.75137 1.8118-14.69483-.042-49.44686-.014-98.89375-.031-148.34063-.013-63.17821.0004-126.35661-.061-189.53469-.2685-10.96077-6.1704-21.74795-15.5446-27.53054-3.5562-2.19745-7.721-3.30855-11.8985-3.19532z"/><path d="m1137.4648 26.74023v393.04297h167.3672c102.6582-131.67952 205.3132-263.36144 307.9688-395.04297-39.6179 0-79.2357 0-118.8535 0-84.526 102.34874-169.0479 204.70078-253.5723 307.05079 0-102.35026 0-204.70053 0-307.05079-34.3034 0-68.6068 0-102.9102 0z"/><path d="m26.179688 26.74023c0 36.8724-.000001 73.7448 0 110.61719h108.732422c0-37.53906 0-75.07812 0-112.61719-36.244141 0-72.488282 0-108.732422 0 0 .66667-.000001 1.33334 0 2z"/><path d="m1522.7793 419.7832h108.7324c0-38.18294 0-76.36588 0-114.54882-36.2441-.00001-72.4883 0-108.7324 0z"/><path d="m1713.9766 419.7832h248.5527c-20.6068-26.86067-41.2135-53.72135-61.8203-80.58203-26.3242 0-52.6485 0-78.9727 0 0-77.19466 0-154.38932 0-231.58398 82.9567 104.05508 165.9127 208.11072 248.8692 312.16601h119.1406c-105.3457-131.68099-210.6914-263.36198-316.0371-395.04297-53.2442 0-106.4883 0-159.7324 0z"/><path d="m2099.2891 137.35742h108.7324c0-37.53906 0-75.07812 0-112.61719-36.2442 0-72.4883 0-108.7324 0z"/><path d="m2289.5156 419.7832h102.9082c0-92.33984 0-184.67968 0-277.01953 76.1115 92.34022 152.2241 184.67963 228.336 277.01953h123.9765c0-131.68099 0-263.36198 0-395.04297-35.2734 0-70.5468 0-105.8203 0v256.77149c-70.2923-85.59048-140.5846-171.18099-210.8769-256.77149-46.1745 0-92.349 0-138.5235 0z"/><path d="m2851.4668 24.74609c-5.512.0311-10.5874 3.0402-14.3181 6.92564-6.2211 6.36975-9.5521 15.42328-8.9827 24.30561.01 113.54926.017 227.0989.058 340.6479.3915 10.19367 7.8111 19.85958 17.7567 22.43412 4.5887 1.17503 9.3627.5936 14.0414.71798h425.3195c0-29.12565 0-58.2513 0-87.37695-118.4076 0-236.8151 0-355.2227 0 0-74.07357 0-148.14713 0-222.2207h355.2227c0-28.47982 0-56.95964 0-85.43946-144.625.002-289.25.004-433.875.006z"/><path d="m3362.9551 419.7832h455.2148c0-27.50716 0-55.01432 0-82.52148-116.789 0-233.5781 0-350.3672 0 0-25.22461 0-50.44922 0-75.67383h350.3672c0-28.47982 0-56.95963 0-85.43945-117.1133 0-234.2265 0-351.3398 0 0-21.66732 0-43.33464 0-65.00196h351.3398c0-28.80208 0-57.60416 0-86.40625-151.7383 0-303.4765 0-455.2148 0z"/><path d="m1329.6387 519.73047c-5.518.0324-10.6027 3.04123-14.3345 6.93579-3.8497 3.96691-6.6079 8.95946-8.0112 14.30054-.093.34134-.2656 1.05786-.3636 1.55547-.9197 4.27513-.5693 8.6653-.675 13.00182-.3587 38.07461-.7711 76.14875-1.149 114.2232-.8294 81.67343-1.6588 163.34681-2.4882 245.02031h102.75c0-103.2032 0-206.40627 0-309.6094h93.1445v309.6094h105.8223c0-103.2032 0-206.40627 0-309.6094h91.2051v309.6094h104.8496c0-131.681 0-263.362 0-395.04299-156.9167.002-313.8334.004-470.75.006z"/><path d="m1877.9961 632.3418h108.7383c0-37.53907 0-75.07813 0-112.61719-36.2461 0-72.4922 0-108.7383 0z"/><path d="m1900.1504 914.7676h119.1426c82.9557-104.0534 165.9112-208.10701 248.8672-312.16018v231.57808c-26.3236 0-52.6472 0-78.9707 0-20.6075 26.8607-41.2149 53.7214-61.8223 80.5821h248.5527c0-131.681 0-263.362 0-395.04299-53.2435 0-106.487 0-159.7304 0-105.3464 131.68099-210.6928 263.36199-316.0391 395.04299z"/><path d="m2476.8301 519.73047c-5.5813.0374-10.7141 3.10385-14.4558 7.07305-5.8741 6.10877-9.168 14.61506-8.8843 23.09099-.2433 30.8594-.6137 61.71761-.9072 92.57655-.9215 90.76551-1.843 181.53104-2.7644 272.29654h102.748c0-103.2032 0-206.40627 0-309.6094h93.1445v309.6094h105.8223c0-103.2032 0-206.40627 0-309.6094h91.2051v309.6094h104.8476c0-131.681 0-263.362 0-395.04299-156.9186.002-313.8372.004-470.7558.006z"/><path d="m3025.1953 914.7676h455.2266c0-27.5072 0-55.0143 0-82.5215-116.793 0-233.586 0-350.3789 0 0-25.2246 0-50.4492 0-75.67383h350.3789c0-28.47982 0-56.95964 0-85.43946-117.1153 0-234.2305 0-351.3457 0 0-21.66536 0-43.33073 0-64.99609h351.3457c0-28.80404 0-57.60807 0-86.41211-151.7422 0-303.4844 0-455.2266 0z"/></g></svg>

<?xml version="1.0" encoding="UTF-8" standalone="no"?>
<svg
   enable-background="new 0 0 685 182"
   height="468"
   viewBox="0 0 1920 468"
   width="1920"
   version="1.1"
   id="svg30"
   sodipodi:docname="mame-advmame.svg"
   inkscape:version="1.3.2 (091e20e, 2023-11-25)"
   xmlns:inkscape="http://www.inkscape.org/namespaces/inkscape"
   xmlns:sodipodi="http://sodipodi.sourceforge.net/DTD/sodipodi-0.dtd"
   xmlns="http://www.w3.org/2000/svg"
   xmlns:svg="http://www.w3.org/2000/svg">
  <defs
     id="defs30" />
  <sodipodi:namedview
     id="namedview30"
     pagecolor="#ffffff"
     bordercolor="#000000"
     borderopacity="0.25"
     inkscape:showpageshadow="2"
     inkscape:pageopacity="0.0"
     inkscape:pagecheckerboard="0"
     inkscape:deskcolor="#d1d1d1"
     inkscape:zoom="0.17364627"
     inkscape:cx="1911.9328"
     inkscape:cy="498.13912"
     inkscape:window-width="1408"
     inkscape:window-height="644"
     inkscape:window-x="0"
     inkscape:window-y="23"
     inkscape:window-maximized="0"
     inkscape:current-layer="svg30" />
  <g
     id="g1"
     transform="scale(0.5)">
    <g
       id="g31"
       transform="scale(1,0.99936834)">
      <g
         fill="#f9f9f9"
         id="g11"
         style="fill:#ffffff;fill-opacity:1;stroke-width:5.82334">
        <path
           d="m 2851.4816,441.61325 c -25.1394,-0.099 -45.1018,-21.24356 -45.1367,-46.10341 V 52.905075 c 0.1805,-24.59198 19.1763,-49.5682994 45.1367,-49.9875801 v 5.8233434 5.8233437 c -8.7816,-0.01165 -17.1031,4.571324 -23.3749,11.89709 -6.2542,7.290826 -10.1442,17.167217 -10.1209,26.443803 V 395.50984 c 0.035,18.56482 15.2047,34.40431 33.49,34.44507 h 444.0241 V 322.21724 H 2940.276 v -201.8662 h 355.2239 V 14.564182 H 2851.4758 V 8.7408383 2.9174949 h 455.6708 V 131.99772 h -355.224 v 178.57865 h 355.224 v 131.0427 z"
           id="path1"
           style="fill:#ffffff;fill-opacity:1" />
        <path
           d="M 1476.6892,936.59161 V 626.96444 h -49.5042 v 309.62717 h -146.6143 l 3.9482,-388.70817 h -0.012 c 0.1805,-24.5978 19.1821,-49.57412 45.1425,-49.9934 h 492.5559 V 936.57997 H 1673.6988 V 626.97609 h -47.5534 v 309.61552 z m 208.6737,-321.26221 -0.012,309.6097 H 1810.559 V 509.54837 h -480.9034 c -8.7874,-0.0233 -17.1031,4.5655 -23.3749,11.89709 -6.26,7.285 -10.15,17.16139 -10.1093,26.43798 h -5.8233 l 5.8117,0.0641 -3.8201,376.9916 h 123.2044 V 615.3294 h 72.7918 v 309.6097 h 126.1686 V 615.3294 Z"
           id="path2"
           style="fill:#ffffff;fill-opacity:1" />
        <path
           d="M 2623.8821,936.59161 V 626.96444 h -49.4926 v 309.62717 h -146.6143 l 3.9424,-388.77223 c 0.2096,-24.56868 19.1995,-49.51006 45.1309,-49.92934 h 492.5616 V 936.57997 H 2820.9149 V 626.97609 h -47.5593 V 936.59161 Z M 2832.5558,615.3294 v 309.6097 h 125.2077 V 509.54837 h -480.915 c -8.7758,-0.0233 -17.0974,4.5655 -23.3749,11.89709 -6.2485,7.285 -10.1385,17.16139 -10.1094,26.43798 h -5.8233 l 5.8233,0.0641 -3.8201,376.9916 h 123.1987 V 615.3294 h 72.7918 l -0.012,309.6097 h 126.1802 V 615.3294 Z"
           id="path3"
           style="fill:#ffffff;fill-opacity:1" />
        <path
           d="M 4.350038,159.18109 V 2.9174949 H 156.72946 V 153.35775 159.18109 Z M 150.90612,153.35775 V 147.5344 Z M 15.996724,147.5344 H 145.0886 V 14.558358 H 15.996724 Z"
           id="path4"
           style="fill:#ffffff;fill-opacity:1" />
        <path
           d="M 2077.4603,159.18109 V 2.9174949 h 152.3794 v 150.4402551 5.82334 z m 146.5561,-5.82334 V 147.5344 Z M 2089.1128,147.5344 H 2218.193 V 14.558358 h -129.0802 z"
           id="path5"
           style="fill:#ffffff;fill-opacity:1" />
        <path
           d="M 1856.1732,654.16528 V 497.89586 h 152.3795 v 150.44608 5.82334 z m 146.5678,-5.82334 v -5.83499 z m -134.9269,-5.83499 h 129.1035 V 509.54837 h -129.1035 z"
           id="path6"
           style="fill:#ffffff;fill-opacity:1" />
        <path
           d="m 228.37406,441.6016 95.32813,-124.23521 h 67.90018 V 169.98922 L 175.06717,441.6016 H 12.112554 v -5.81752 l 4.548032,3.62794 -4.548032,-3.62794 v 5.81752 H 7.999996e-8 L 350.95544,2.9116716 H 543.0093 V 441.6016 Z M 169.44765,429.96074 403.24906,136.71463 v 192.3101 l -73.81088,-0.0175 -77.43882,100.94183 H 531.36262 V 14.558358 H 356.54585 L 24.225109,429.96074 Z"
           id="path7"
           style="fill:#ffffff;fill-opacity:1" />
        <path
           d="m 2083.1089,936.58579 95.334,-124.23521 h 67.8827 V 664.97923 l -216.5294,271.60656 h -162.9429 v -5.82334 l 4.548,3.63376 -4.548,-3.63376 v 5.82334 h -12.1184 l 350.9438,-438.68993 h 192.0597 v 438.68993 z m -58.9206,-11.64086 233.7956,-293.24028 v 192.30426 l -73.805,-0.0116 -77.4505,100.93019 h 279.3633 V 509.54255 h -174.811 L 1878.96,924.94493 Z"
           id="path8"
           style="fill:#ffffff;fill-opacity:1" />
        <path
           d="M 2060.0893,441.6016 1843.5482,170.00086 v 147.36553 h 67.9002 l 95.3281,124.23521 H 1692.1413 V 2.9116716 h 192.0539 l 343.3851,429.2269984 -4.5481,3.64541 v -5.82334 5.82334 l 4.5481,-3.64541 7.582,9.46293 z m 5.6078,-11.64086 h 145.2226 L 1878.5989,14.558358 H 1703.7822 V 429.94909 h 279.3632 l -77.433,-100.92436 h -73.8109 V 136.70299 Z"
           id="path9"
           style="fill:#ffffff;fill-opacity:1" />
        <path
           d="M 577.95519,444.51327 V 318.35636 l 349.39478,-0.0116 V 136.84857 H 727.41712 V 289.228 H 577.95519 V -1.4e-7 H 1028.7751 V 5.8175199 l 0.058,-5.81752004 c 27.9113,0.58815768 47.7572,26.93296314 47.9727,52.90507514 V 395.52148 c -0.035,26.40304 -21.197,48.88697 -48.0368,48.99179 z m 11.64668,-11.64669 h 439.16163 c 20.0265,-0.0233 36.4192,-17.20215 36.4075,-37.3451 V 52.928368 c 0.035,-20.370055 -16.7188,-41.316621 -36.4424,-41.281681 H 589.60187 V 277.58131 H 715.77043 V 125.20188 H 938.99665 V 329.9914 H 589.60187 Z"
           id="path10"
           style="fill:#ffffff;fill-opacity:1" />
        <path
           d="M 1115.6361,441.61325 V 8.7408383 2.9174949 h 146.5678 V 271.07664 L 1483.6481,2.9174949 h 173.8443 L 1315.5107,441.61325 Z m 11.6467,-11.65834 h 182.5385 L 1633.6342,14.564182 H 1489.1396 L 1250.5455,303.48354 V 14.564182 H 1127.2886 Z M 1121.4653,14.564182 V 8.7408383 Z"
           id="path11"
           style="fill:#ffffff;fill-opacity:1" />
      </g>
      <path
         d="M 1500.9493,441.61325 V 283.39883 h 152.3794 v 152.37943 5.83499 z m 146.5561,-5.83499 v -5.82335 z m -134.9094,-5.82335 h 129.086 V 295.05134 h -129.086 z"
         fill="#ffffff"
         id="path12"
         style="fill:#ffffff;fill-opacity:1;stroke-width:5.82334" />
      <path
         d="m 2610.4651,441.61325 -196.2176,-238.0641 v 238.0641 h -140.7327 v -5.83499 h 5.8233 -5.8233 v 5.83499 h -5.8234 V 2.9174949 h 170.6531 L 2617.0921,220.54748 V 2.9174949 h 149.4677 V 441.61325 Z m -331.127,-11.65834 123.2627,-0.0175 V 171.08983 l 213.3615,258.84761 h 138.9392 V 14.564182 H 2628.7387 V 253.09415 L 2432.8473,14.564182 h -153.5092 z"
         fill="#f9f9f9"
         id="path13"
         style="fill:#ffffff;fill-opacity:1;stroke-width:5.82334" />
      <path
         d="M 3341.1316,441.61325 V 8.7408383 2.9174949 H 3840 V 132.97022 h -351.3514 v 21.3542 H 3840 v 129.08606 h -350.3789 v 32.02256 H 3840 v 126.18021 z m 11.6467,-11.67581 h 475.5692 V 327.07973 h -350.3673 v -55.32759 h 350.3673 V 165.97111 h -351.3398 v -44.64757 h 351.3398 V 14.564182 H 3352.7783 Z M 3346.955,14.564182 V 8.7408383 Z"
         fill="#f9f9f9"
         id="path14"
         style="fill:#ffffff;fill-opacity:1;stroke-width:5.82334" />
      <path
         d="m 3003.3661,936.59161 v -432.86658 -5.83499 h 498.88 v 130.0702 l -351.3456,-0.0117 v 21.3542 h 351.3456 v 129.08605 l -350.3848,-0.0175 v 32.04004 h 350.3848 v 126.1802 z m 11.6467,-11.65251 h 475.5808 V 822.05809 h -350.3731 v -55.31593 h 350.3731 V 660.94948 H 3139.2538 V 616.3019 h 351.3339 V 509.54837 h -475.5808 z m -5.8234,-415.39073 v -5.82334 z"
         fill="#f9f9f9"
         id="path15"
         style="fill:#ffffff;fill-opacity:1;stroke-width:5.82334" />
      <path
         d="M 360.86328,25.48828 C 255.71338,156.9163 150.56468,288.35172 45.416016,419.7832 H 164.55664 C 247.5156,315.72836 330.4732,211.67244 413.43164,107.61719 v 231.58398 c -26.32747,0 -52.65495,0 -78.98242,0 -20.60478,26.86171 -41.21127,53.7221 -61.81836,80.58203 h 248.56055 c 0,-131.68099 0,-263.36198 0,-395.04297 -53.24219,0 -106.48438,0 -159.72657,0 -0.20052,0.24935 -0.40104,0.4987 -0.60156,0.74805 z"
         fill="#ffffff"
         id="path16"
         style="fill:#ffffff;fill-opacity:1;stroke-width:5.82334" />
      <path
         d="m 1027.4863,21.81641 c -142.56768,0.003 -285.13539,0.005 -427.7031,0.008 v 245.58008 h 105.81055 c 0,-50.79102 0,-101.58203 0,-152.37305 h 243.58008 v 225.13672 c -116.46485,0.004 -232.92969,0.008 -349.39453,0.0117 v 82.51562 c 143.455,-0.01 286.91063,-0.0161 430.3652,-0.0586 10.2741,-0.54129 19.6325,-7.90287 23.0645,-17.52431 1.7886,-4.67239 1.9725,-9.75137 1.8118,-14.69483 -0.042,-49.44686 -0.014,-98.89375 -0.031,-148.34063 -0.013,-63.17821 4e-4,-126.35661 -0.061,-189.53469 -0.2685,-10.96077 -6.1704,-21.74795 -15.5446,-27.53054 -3.5562,-2.19745 -7.721,-3.30855 -11.8985,-3.19532 z"
         fill="#ffffff"
         id="path17"
         style="fill:#ffffff;fill-opacity:1;stroke-width:5.82334" />
      <path
         d="M 1137.4648,26.74023 V 419.7832 h 167.3672 c 102.6582,-131.67952 205.3132,-263.36144 307.9688,-395.04297 -39.6179,0 -79.2357,0 -118.8535,0 -84.526,102.34874 -169.0479,204.70078 -253.5723,307.05079 0,-102.35026 0,-204.70053 0,-307.05079 -34.3034,0 -68.6068,0 -102.9102,0 z"
         fill="#ffffff"
         id="path18"
         style="fill:#ffffff;fill-opacity:1;stroke-width:5.82334" />
      <path
         d="m 26.179688,26.74023 c 0,36.8724 -10e-7,73.7448 0,110.61719 H 134.91211 c 0,-37.53906 0,-75.07812 0,-112.61719 -36.244141,0 -72.488282,0 -108.732422,0 0,0.66667 -10e-7,1.33334 0,2 z"
         fill="#ffffff"
         id="path19"
         style="fill:#ffffff;fill-opacity:1;stroke-width:5.82334" />
      <path
         d="m 1522.7793,419.7832 h 108.7324 c 0,-38.18294 0,-76.36588 0,-114.54882 -36.2441,-10e-6 -72.4883,0 -108.7324,0 z"
         fill="#f9f9f9"
         id="path20"
         style="fill:#ffffff;fill-opacity:1;stroke-width:5.82334" />
      <path
         d="m 1713.9766,419.7832 h 248.5527 c -20.6068,-26.86067 -41.2135,-53.72135 -61.8203,-80.58203 -26.3242,0 -52.6485,0 -78.9727,0 0,-77.19466 0,-154.38932 0,-231.58398 82.9567,104.05508 165.9127,208.11072 248.8692,312.16601 h 119.1406 C 2084.4004,288.10221 1979.0547,156.42122 1873.709,24.74023 c -53.2442,0 -106.4883,0 -159.7324,0 z"
         fill="#ffffff"
         id="path21"
         style="fill:#ffffff;fill-opacity:1;stroke-width:5.82334" />
      <path
         d="m 2099.2891,137.35742 h 108.7324 c 0,-37.53906 0,-75.07812 0,-112.61719 -36.2442,0 -72.4883,0 -108.7324,0 z"
         fill="#ffffff"
         id="path22"
         style="fill:#ffffff;fill-opacity:1;stroke-width:5.82334" />
      <path
         d="m 2289.5156,419.7832 h 102.9082 c 0,-92.33984 0,-184.67968 0,-277.01953 76.1115,92.34022 152.2241,184.67963 228.336,277.01953 h 123.9765 c 0,-131.68099 0,-263.36198 0,-395.04297 -35.2734,0 -70.5468,0 -105.8203,0 v 256.77149 c -70.2923,-85.59048 -140.5846,-171.18099 -210.8769,-256.77149 -46.1745,0 -92.349,0 -138.5235,0 z"
         fill="#ffffff"
         id="path23"
         style="fill:#ffffff;fill-opacity:1;stroke-width:5.82334" />
      <path
         d="m 2851.4668,24.74609 c -5.512,0.0311 -10.5874,3.0402 -14.3181,6.92564 -6.2211,6.36975 -9.5521,15.42328 -8.9827,24.30561 0.01,113.54926 0.017,227.0989 0.058,340.6479 0.3915,10.19367 7.8111,19.85958 17.7567,22.43412 4.5887,1.17503 9.3627,0.5936 14.0414,0.71798 h 425.3195 c 0,-29.12565 0,-58.2513 0,-87.37695 -118.4076,0 -236.8151,0 -355.2227,0 0,-74.07357 0,-148.14713 0,-222.2207 h 355.2227 c 0,-28.47982 0,-56.95964 0,-85.43946 -144.625,0.002 -289.25,0.004 -433.875,0.006 z"
         fill="#ffffff"
         id="path24"
         style="fill:#ffffff;fill-opacity:1;stroke-width:5.82334" />
      <path
         d="m 3362.9551,419.7832 h 455.2148 c 0,-27.50716 0,-55.01432 0,-82.52148 -116.789,0 -233.5781,0 -350.3672,0 0,-25.22461 0,-50.44922 0,-75.67383 h 350.3672 c 0,-28.47982 0,-56.95963 0,-85.43945 -117.1133,0 -234.2265,0 -351.3398,0 0,-21.66732 0,-43.33464 0,-65.00196 h 351.3398 c 0,-28.80208 0,-57.60416 0,-86.40625 -151.7383,0 -303.4765,0 -455.2148,0 z"
         fill="#ffffff"
         id="path25"
         style="fill:#ffffff;fill-opacity:1;stroke-width:5.82334" />
      <path
         d="m 1329.6387,519.73047 c -5.518,0.0324 -10.6027,3.04123 -14.3345,6.93579 -3.8497,3.96691 -6.6079,8.95946 -8.0112,14.30054 -0.093,0.34134 -0.2656,1.05786 -0.3636,1.55547 -0.9197,4.27513 -0.5693,8.6653 -0.675,13.00182 -0.3587,38.07461 -0.7711,76.14875 -1.149,114.2232 -0.8294,81.67343 -1.6588,163.34681 -2.4882,245.02031 h 102.75 c 0,-103.2032 0,-206.40627 0,-309.6094 h 93.1445 v 309.6094 h 105.8223 c 0,-103.2032 0,-206.40627 0,-309.6094 h 91.2051 v 309.6094 h 104.8496 c 0,-131.681 0,-263.362 0,-395.04299 -156.9167,0.002 -313.8334,0.004 -470.75,0.006 z"
         fill="#f9f9f9"
         id="path26"
         style="fill:#ffffff;fill-opacity:1;stroke-width:5.82334" />
      <path
         d="m 1877.9961,632.3418 h 108.7383 c 0,-37.53907 0,-75.07813 0,-112.61719 -36.2461,0 -72.4922,0 -108.7383,0 z"
         fill="#f9f9f9"
         id="path27"
         style="fill:#ffffff;fill-opacity:1;stroke-width:5.82334" />
      <path
         d="m 1900.1504,914.7676 h 119.1426 c 82.9557,-104.0534 165.9112,-208.10701 248.8672,-312.16018 V 834.1855 c -26.3236,0 -52.6472,0 -78.9707,0 -20.6075,26.8607 -41.2149,53.7214 -61.8223,80.5821 h 248.5527 c 0,-131.681 0,-263.362 0,-395.04299 -53.2435,0 -106.487,0 -159.7304,0 C 2110.8431,651.4056 2005.4967,783.0866 1900.1504,914.7676 Z"
         fill="#f9f9f9"
         id="path28"
         style="fill:#ffffff;fill-opacity:1;stroke-width:5.82334" />
      <path
         d="m 2476.8301,519.73047 c -5.5813,0.0374 -10.7141,3.10385 -14.4558,7.07305 -5.8741,6.10877 -9.168,14.61506 -8.8843,23.09099 -0.2433,30.8594 -0.6137,61.71761 -0.9072,92.57655 -0.9215,90.76551 -1.843,181.53104 -2.7644,272.29654 h 102.748 c 0,-103.2032 0,-206.40627 0,-309.6094 h 93.1445 v 309.6094 h 105.8223 c 0,-103.2032 0,-206.40627 0,-309.6094 h 91.2051 v 309.6094 h 104.8476 c 0,-131.681 0,-263.362 0,-395.04299 -156.9186,0.002 -313.8372,0.004 -470.7558,0.006 z"
         fill="#f9f9f9"
         id="path29"
         style="fill:#ffffff;fill-opacity:1;stroke-width:5.82334" />
      <path
         d="m 3025.1953,914.7676 h 455.2266 c 0,-27.5072 0,-55.0143 0,-82.5215 -116.793,0 -233.586,0 -350.3789,0 0,-25.2246 0,-50.4492 0,-75.67383 h 350.3789 c 0,-28.47982 0,-56.95964 0,-85.43946 -117.1153,0 -234.2305,0 -351.3457,0 0,-21.66536 0,-43.33073 0,-64.99609 h 351.3457 c 0,-28.80404 0,-57.60807 0,-86.41211 -151.7422,0 -303.4844,0 -455.2266,0 z"
         fill="#f9f9f9"
         id="path30"
         style="fill:#ffffff;fill-opacity:1;stroke-width:5.82334" />
    </g>
  </g>
</svg>
